svgs/light/folder-grid.svg

<svg xmlns="http://www.w3.org/2000/svg" viewBox="0 0 512 512"><!--! Font Awesome Pro 6.3.0 by @fontawesome - https://fontawesome.com License - https://fontawesome.com/license (Commercial License) Copyright 2023 Fonticons, Inc. --><path d="M448 96h-176L226.7 50.75C214.7 38.74 198.5 32 181.5 32H64C28.65 32 0 60.66 0 96v320c0 35.34 28.65 64 64 64h384c35.35 0 64-28.66 64-64V160C512 124.7 483.3 96 448 96zM480 416c0 17.64-14.36 32-32 32H64c-17.64 0-32-14.36-32-32V96c0-17.64 14.36-32 32-32h117.5c8.549 0 16.58 3.328 22.63 9.375L258.7 128H448c17.64 0 32 14.36 32 32V416zM152 240h-48C90.77 240 80 250.8 80 264v48c0 13.22 10.77 24 24 24h48c13.23 0 24-10.78 24-24v-48C176 250.8 165.2 240 152 240zM144 304h-32v-32h32V304zM280 240h-48C218.8 240 208 250.8 208 264v48c0 13.22 10.77 24 24 24h48c13.23 0 24-10.78 24-24v-48C304 250.8 293.2 240 280 240zM272 304h-32v-32h32V304zM408 240h-48c-13.23 0-24 10.78-24 24v48c0 13.22 10.77 24 24 24h48c13.23 0 24-10.78 24-24v-48C432 250.8 421.2 240 408 240zM400 304h-32v-32h32V304z"/></svg>

<svg xmlns="http://www.w3.org/2000/svg" viewBox="0 0 512 512"><!--! Font Awesome Pro 6.4.0 by @fontawesome - https://fontawesome.com License - https://fontawesome.com/license (Commercial License) Copyright 2023 Fonticons, Inc. --><path d="M32 96c0-17.7 14.3-32 32-32H188.1c8.5 0 16.6 3.4 22.6 9.4l35.9 35.9c12 12 28.3 18.7 45.3 18.7H448c17.7 0 32 14.3 32 32V416c0 17.7-14.3 32-32 32H64c-17.7 0-32-14.3-32-32V96zM64 32C28.7 32 0 60.7 0 96V416c0 35.3 28.7 64 64 64H448c35.3 0 64-28.7 64-64V160c0-35.3-28.7-64-64-64H291.9c-8.5 0-16.6-3.4-22.6-9.4L233.4 50.7c-12-12-28.3-18.7-45.3-18.7H64zm48 272V272h32v32H112zM80 264v48c0 13.3 10.7 24 24 24h48c13.3 0 24-10.7 24-24V264c0-13.3-10.7-24-24-24H104c-13.3 0-24 10.7-24 24zm160 40V272h32v32H240zm-32-40v48c0 13.3 10.7 24 24 24h48c13.3 0 24-10.7 24-24V264c0-13.3-10.7-24-24-24H232c-13.3 0-24 10.7-24 24zm160 8h32v32H368V272zm-8-32c-13.3 0-24 10.7-24 24v48c0 13.3 10.7 24 24 24h48c13.3 0 24-10.7 24-24V264c0-13.3-10.7-24-24-24H360z"/></svg>
